Simply-Orange-Circles/scalable/apps/smartgit.svg

<svg xmlns="http://www.w3.org/2000/svg" width="48" height="48" viewBox="0 0 12.7 12.7"><path d="M6.35.06a6.29 6.29 0 0 0-6.29 6.3 6.29 6.29 0 0 0 6.3 6.28 6.29 6.29 0 0 0 6.28-6.29A6.29 6.29 0 0 0 6.35.06zM6.33 1a5.4 5.4 0 0 1 5.4 5.4 5.4 5.4 0 0 1-5.4 5.41 5.4 5.4 0 0 1-5.4-5.4A5.4 5.4 0 0 1 6.33 1z" fill="#ff7f2a"/><path d="M7.44 4.1L7.2 5.38l1.56.98L6.74 7.6l-.35 1.72 4.46-2.97z" opacity=".75" fill="#1d99f3"/><path d="M6.35 3.37l-4.5 3 3.45 2.3.27-1.3-1.62-1.01 2.08-1.3.34-1.68z" opacity=".75" fill="#9559b6"/></svg>

<?xml version="1.0" encoding="UTF-8" standalone="no"?>
<svg
   xmlns:dc="http://purl.org/dc/elements/1.1/"
   xmlns:cc="http://creativecommons.org/ns#"
   xmlns:rdf="http://www.w3.org/1999/02/22-rdf-syntax-ns#"
   xmlns:svg="http://www.w3.org/2000/svg"
   xmlns="http://www.w3.org/2000/svg"
   xmlns:sodipodi="http://sodipodi.sourceforge.net/DTD/sodipodi-0.dtd"
   xmlns:inkscape="http://www.inkscape.org/namespaces/inkscape"
   width="48"
   height="48"
   viewBox="0 0 12.7 12.7"
   version="1.1"
   id="svg8"
   sodipodi:docname="smartgit.svg"
   inkscape:version="0.92.4 (5da689c313, 2019-01-14)">
  <metadata
     id="metadata14">
    <rdf:RDF>
      <cc:Work
         rdf:about="">
        <dc:format>image/svg+xml</dc:format>
        <dc:type
           rdf:resource="http://purl.org/dc/dcmitype/StillImage" />
        <dc:title></dc:title>
      </cc:Work>
    </rdf:RDF>
  </metadata>
  <defs
     id="defs12" />
  <sodipodi:namedview
     pagecolor="#ffffff"
     bordercolor="#666666"
     borderopacity="1"
     objecttolerance="10"
     gridtolerance="10"
     guidetolerance="10"
     inkscape:pageopacity="0"
     inkscape:pageshadow="2"
     inkscape:window-width="1087"
     inkscape:window-height="480"
     id="namedview10"
     showgrid="false"
     inkscape:zoom="4.9166667"
     inkscape:cx="2.1355932"
     inkscape:cy="24"
     inkscape:window-x="0"
     inkscape:window-y="25"
     inkscape:window-maximized="0"
     inkscape:current-layer="svg8" />
  <path
     d="M 6.35,0.06 A 6.29,6.29 0 0 0 0.06,6.36 6.29,6.29 0 0 0 6.36,12.64 6.29,6.29 0 0 0 12.64,6.35 6.29,6.29 0 0 0 6.35,0.06 Z M 6.33,1 a 5.4,5.4 0 0 1 5.4,5.4 5.4,5.4 0 0 1 -5.4,5.41 A 5.4,5.4 0 0 1 0.93,6.41 5.4,5.4 0 0 1 6.33,1 Z"
     id="path2"
     inkscape:connector-curvature="0"
     style="fill:#ff7f2a" />
  <path
     d="M 7.44,4.1 7.2,5.38 8.76,6.36 6.74,7.6 6.39,9.32 10.85,6.35 Z"
     id="path4"
     inkscape:connector-curvature="0"
     style="opacity:0.75;fill:#1d99f3" />
  <path
     d="m 6.35,3.37 -4.5,3 L 5.3,8.67 5.57,7.37 3.95,6.36 6.03,5.06 6.37,3.38 Z"
     id="path6"
     inkscape:connector-curvature="0"
     style="opacity:0.75;fill:#9559b6" />
</svg>
